svg/300/outlined/dashboard-fill.svg

<svg xmlns="http://www.w3.org/2000/svg" width="48" height="48" viewBox="0 -960 960 960"><path d="M522.693-578.078v-241.921h297.306v241.921H522.693ZM140.001-467.309v-352.69h297.306v352.69H140.001Zm382.692 327.308v-352.69h297.306v352.69H522.693Zm-382.692 0v-241.921h297.306v241.921H140.001Z"/></svg>

<svg xmlns="http://www.w3.org/2000/svg" width="48" height="48" viewBox="0 -960 960 960"><path d="M522.69-578.08V-820H820v241.92H522.69ZM140-467.31V-820h297.31v352.69H140ZM522.69-140v-352.69H820V-140H522.69ZM140-140v-241.92h297.31V-140H140Z"/></svg>
